X: 42492
T: Whaap, The
R: reel
M: 4/4
K: Amixolydian
g3 g fedf|eAAG A2 AD|EGBd c2 Ad|eAAG A2 ef|
g3 g fedf|eAAG A2 eg|abag eedA|1 cAAG A2 ef:|2 cAAG A2 eg||
|:a3 a- aaga|bagf e2 fe|g3 g- g a2 g|fddg ddad|
a3 a- aaga|bagf e2 fe|g3 g fedf|1 eAAG A2 eg:|2 eAAG A z z2||

